build/system/GroupObjectsSolid.svg

<svg xmlns="http://www.w3.org/2000/svg" fill="none" viewBox="0 0 24 24" focusable="false"><path d="M0 0H24V24H0z"/><path fill="#74767B" fill-rule="evenodd" d="M5 2L5.79928 2C6.15826 2 6.44928 2.29101 6.44928 2.65C6.44928 3.00899 6.15826 3.3 5.79928 3.3L5 3.3C4.06112 3.3 3.3 4.06112 3.3 5L3.3 5.69097C3.3 6.04996 3.00899 6.34097 2.65 6.34097C2.29101 6.34097 2 6.04996 2 5.69097L2 5C2 3.34315 3.34315 2 5 2ZM22 5.69097C22 6.04996 21.709 6.34097 21.35 6.34097C20.991 6.34097 20.7 6.04996 20.7 5.69097L20.7 5C20.7 4.06112 19.9389 3.3 19 3.3L18.4172 3.3C18.0582 3.3 17.7672 3.00899 17.7672 2.65C17.7672 2.29101 18.0582 2 18.4172 2L19 2C20.6569 2 22 3.34315 22 5L22 5.69097ZM13.3999 6.70002L13.3999 10.9996L12.7 11L17.3 11C18.2389 11 19 11.7611 19 12.7L19 17.3C19 18.2389 18.2389 19 17.3 19L12.7 19C11.7611 19 11 18.2389 11 17.3L11 13.4L6.6999 13.4C5.76102 13.4 4.9999 12.6389 4.9999 11.7L4.9999 6.70002C4.9999 5.76114 5.76102 5.00002 6.6999 5.00002L11.6999 5.00002C12.6388 5.00002 13.3999 5.76114 13.3999 6.70002ZM17.7 17.3L17.7 12.7C17.7 12.4791 17.5209 12.3 17.3 12.3L12.7 12.3C12.4791 12.3 12.3 12.4791 12.3 12.7L12.3 17.3C12.3 17.5209 12.4791 17.7 12.7 17.7L17.3 17.7C17.5209 17.7 17.7 17.5209 17.7 17.3ZM2 18.3089C2 17.9499 2.29101 17.6589 2.65 17.6589C3.00899 17.6589 3.3 17.9499 3.3 18.3089L3.3 19C3.3 19.9389 4.06112 20.7 5 20.7L5.79928 20.7C6.15826 20.7 6.44928 20.991 6.44928 21.35C6.44928 21.709 6.15826 22 5.79928 22L5 22C3.34315 22 2 20.6569 2 19L2 18.3089ZM21.35 17.6589C20.991 17.6589 20.7 17.9499 20.7 18.3089L20.7 19C20.7 19.9389 19.9389 20.7 19 20.7L18.4172 20.7C18.0582 20.7 17.7672 20.991 17.7672 21.35C17.7672 21.709 18.0582 22 18.4172 22L19 22C20.6569 22 22 20.6569 22 19L22 18.3089C22 17.9499 21.709 17.6589 21.35 17.6589Z"/></svg>

<svg xmlns="http://www.w3.org/2000/svg" fill="none" viewBox="0 0 24 24" focusable="false"><path fill="#74767B" fill-rule="evenodd" d="M5.79 2H5C3.34 2 2 3.34 2 5v.69c0 .35.29.65.64.65.36 0 .65-.3.65-.65V5c0-.94.77-1.71 1.71-1.71h.79c.36 0 .65-.29.65-.64 0-.36-.29-.65-.65-.65M22 5.69c0 .35-.3.65-.65.65-.36 0-.65-.3-.65-.65V5c0-.94-.77-1.71-1.7-1.71h-.59c-.36 0-.65-.29-.65-.64 0-.36.29-.65.65-.65H19c1.65 0 3 1.34 3 3zM13.39 6.7v4.29l-.69.01h4.59c.94 0 1.71.76 1.71 1.7v4.59c0 .94-.77 1.71-1.71 1.71H12.7c-.94 0-1.7-.77-1.7-1.71V13.4H6.69c-.93 0-1.69-.77-1.69-1.7v-5C5 5.76 5.76 5 6.69 5h5c.94 0 1.7.76 1.7 1.7m4.31 10.59V12.7c0-.23-.18-.4-.41-.4H12.7c-.23 0-.41.17-.41.4v4.59c0 .23.18.41.41.41h4.59c.23 0 .41-.18.41-.41M2 18.3c0-.36.29-.65.64-.65.36 0 .65.29.65.65v.7c0 .93.77 1.7 1.71 1.7h.79c.36 0 .65.29.65.65 0 .35-.29.65-.65.65H5c-1.66 0-3-1.35-3-3zm19.35-.65c-.36 0-.65.29-.65.65v.7c0 .93-.77 1.7-1.7 1.7h-.59c-.36 0-.65.29-.65.65 0 .35.29.65.65.65H19c1.65 0 3-1.35 3-3v-.7c0-.36-.3-.65-.65-.65"/></svg>
